tools/download-figma-icons/icons/outlined-large/full-service.svg

<svg width="64" height="64" viewBox="0 0 64 64" fill="none" xmlns="http://www.w3.org/2000/svg">
<path fill-rule="evenodd" clip-rule="evenodd" d="M22.0722 13.0684L20.0262 11.8544L22.9382 6.67546L24.7822 7.76846C25.2532 8.04746 25.8412 8.04746 26.3112 7.76846L28.3822 6.54146C28.8382 6.27146 29.1172 5.78047 29.1172 5.25147V3.00048H34.8832V5.31447C34.8832 5.84447 35.1622 6.33546 35.6182 6.60446L37.6352 7.79946C38.1062 8.08146 38.6942 8.07946 39.1651 7.79946L41.0611 6.67546L43.9731 11.8544L41.9701 13.0434C41.5141 13.3124 41.2351 13.8034 41.2351 14.3334V16.6684C41.2351 17.1974 41.5141 17.6884 41.9701 17.9584L43.9731 19.1464L41.0611 24.3244L38.9732 23.0874C38.5032 22.8074 37.9152 22.8074 37.4442 23.0874L35.6182 24.1694C35.1622 24.4384 34.8832 24.9284 34.8832 25.4594V28.0004H29.1172V25.5214C29.1172 24.9924 28.8382 24.5014 28.3822 24.2314L26.5042 23.1184C26.0332 22.8394 25.4452 22.8394 24.9742 23.1184L22.9382 24.3244L20.0262 19.1464L22.0722 17.9324C22.5282 17.6634 22.8072 17.1724 22.8072 16.6424V14.3584C22.8072 13.8294 22.5282 13.3384 22.0722 13.0684ZM17.2352 17.3134C16.5342 17.7284 16.2932 18.6284 16.6922 19.3394L21.0752 27.1324C21.2732 27.4844 21.6042 27.7424 21.9952 27.8464C22.3842 27.9514 22.8012 27.8944 23.1472 27.6874L25.7392 26.1524L26.1172 26.3764V29.5004C26.1172 30.3284 26.7892 31.0004 27.6172 31.0004H36.3832C37.2112 31.0004 37.8832 30.3284 37.8832 29.5004V26.3134L38.2092 26.1214L40.8521 27.6874C41.2001 27.8944 41.6191 27.9514 42.0051 27.8464C42.3951 27.7424 42.7261 27.4844 42.9251 27.1324L47.3071 19.3394C47.7071 18.6284 47.4661 17.7284 46.7641 17.3134L44.2351 15.8134V15.1874L46.7641 13.6874C47.4661 13.2724 47.7071 12.3734 47.3071 11.6624L42.9251 3.86847C42.7261 3.51647 42.3951 3.25848 42.0061 3.15448C41.6161 3.04948 41.2001 3.10848 40.8521 3.31348L38.4002 4.76647L37.8832 4.46047V1.50048C37.8832 0.672486 37.2112 0.000488279 36.3832 0.000488279H27.6172C26.7892 0.000488279 26.1172 0.672486 26.1172 1.50048V4.39647L25.5472 4.73447L23.1472 3.31348C22.8012 3.10848 22.3842 3.04948 21.9942 3.15448C21.6042 3.25848 21.2732 3.51647 21.0752 3.86847L16.6922 11.6624C16.2932 12.3734 16.5342 13.2724 17.2352 13.6874L19.8072 15.2134V15.7884L17.2352 17.3134ZM59.8748 47.245L31.8769 60.891L2.99999 51.905V37H17.6659C26.1499 37 27.7409 42.141 27.8009 42.345C27.9769 43 28.5709 43.456 29.2499 43.456H42.9718C42.9738 43.456 42.9755 43.4562 42.9772 43.4564C42.9786 43.4566 42.98 43.4568 42.9813 43.457C42.9843 43.4575 42.9873 43.458 42.9908 43.458C44.0948 43.458 44.9928 44.355 44.9928 45.458C44.9928 46.56 44.0948 47.458 42.9908 47.458H24.1579C23.3299 47.458 22.6579 48.13 22.6579 48.958C22.6579 49.786 23.3299 50.458 24.1579 50.458H42.9908C43.0948 50.458 43.1948 50.447 43.2928 50.428C43.9978 50.385 44.6568 50.197 45.2528 49.892C45.2583 49.8901 45.2637 49.8883 45.2692 49.8865C45.2773 49.8838 45.2855 49.8811 45.2937 49.8785C45.3292 49.867 45.3646 49.8556 45.3978 49.839L58.1208 43.647C59.1138 43.166 60.3128 43.579 60.7968 44.57C61.2798 45.561 60.8658 46.762 59.8748 47.245ZM63.4938 43.256C62.2848 40.778 59.2858 39.741 56.8078 40.95L47.9728 45.25C47.8648 42.697 45.8438 40.649 43.3028 40.489C43.2018 40.468 43.0988 40.456 42.9908 40.456H30.2589C29.2289 38.347 26.0839 34.0001 17.6659 34.0001H1.49999C0.671997 34.0001 0 34.6721 0 35.5001V53.01C0 53.667 0.426998 54.247 1.055 54.442L31.5549 63.9319C31.5575 63.9327 31.5599 63.933 31.5623 63.9332C31.5663 63.9336 31.5701 63.9337 31.5739 63.9349C31.7089 63.9749 31.8479 63.9969 31.9889 63.9979C31.9903 63.9979 31.9919 63.9984 31.9936 63.9988C31.9956 63.9994 31.9977 63.9999 31.9999 63.9999H32.0009C32.1399 63.9999 32.2779 63.9739 32.4159 63.9329C32.4529 63.9229 32.4889 63.9089 32.5249 63.8939C32.5419 63.8878 32.559 63.8826 32.5762 63.8775L32.5762 63.8775C32.6034 63.8693 32.6305 63.8612 32.6569 63.8489L61.1888 49.942C63.6678 48.734 64.7007 45.735 63.4938 43.256ZM34.9999 15.5C34.9999 13.846 33.6539 12.5 31.9999 12.5C30.3459 12.5 28.9999 13.846 28.9999 15.5C28.9999 17.154 30.3459 18.5 31.9999 18.5C33.6539 18.5 34.9999 17.154 34.9999 15.5ZM37.9999 15.5C37.9999 18.809 35.3089 21.5 31.9999 21.5C28.6909 21.5 25.9999 18.809 25.9999 15.5C25.9999 12.191 28.6909 9.50005 31.9999 9.50005C35.3089 9.50005 37.9999 12.191 37.9999 15.5Z" fill="black"/>
</svg>

<svg xmlns="http://www.w3.org/2000/svg" width="64" height="64" fill="none" viewBox="0 0 64 64"><path fill="currentColor" fill-rule="evenodd" d="m22.072 13.068-2.046-1.214 2.912-5.179 1.844 1.093a1.5 1.5 0 0 0 1.53 0l2.07-1.227a1.5 1.5 0 0 0 .735-1.29v-2.25h5.766v2.313c0 .53.28 1.021.735 1.29L37.635 7.8c.471.282 1.06.28 1.53 0l1.896-1.124 2.912 5.18-2.003 1.188c-.456.27-.735.76-.735 1.29v2.335a1.5 1.5 0 0 0 .735 1.29l2.003 1.188-2.912 5.178-2.088-1.237a1.5 1.5 0 0 0-1.529 0l-1.826 1.082a1.5 1.5 0 0 0-.735 1.29V28h-5.766v-2.479a1.5 1.5 0 0 0-.735-1.29l-1.878-1.113a1.5 1.5 0 0 0-1.53 0l-2.036 1.206-2.912-5.178 2.046-1.214c.456-.269.735-.76.735-1.29v-2.284a1.5 1.5 0 0 0-.735-1.29m-4.837 4.245a1.5 1.5 0 0 0-.543 2.026l4.383 7.793a1.497 1.497 0 0 0 2.072.555l2.592-1.535.378.224V29.5a1.5 1.5 0 0 0 1.5 1.5h8.766a1.5 1.5 0 0 0 1.5-1.5v-3.187l.326-.192 2.643 1.566a1.5 1.5 0 0 0 2.073-.555l4.382-7.793a1.5 1.5 0 0 0-.543-2.026l-2.529-1.5v-.626l2.53-1.5a1.5 1.5 0 0 0 .542-2.025l-4.382-7.794a1.504 1.504 0 0 0-2.073-.555L38.4 4.766l-.517-.306V1.5a1.5 1.5 0 0 0-1.5-1.5h-8.766a1.5 1.5 0 0 0-1.5 1.5v2.896l-.57.338-2.4-1.42a1.5 1.5 0 0 0-2.072.554l-4.383 7.794a1.5 1.5 0 0 0 .543 2.025l2.572 1.526v.575zm42.64 29.932L31.877 60.891 3 51.905V37h14.666c8.484 0 10.075 5.141 10.135 5.345a1.5 1.5 0 0 0 1.449 1.111h13.727l.004.001.01.001c1.104 0 2.002.897 2.002 2s-.898 2-2.002 2H24.158a1.5 1.5 0 0 0 0 3H42.99q.156 0 .302-.03a4.9 4.9 0 0 0 1.96-.536l.04-.014q.055-.015.105-.039l12.723-6.192a2.007 2.007 0 0 1 2.676.923 2.004 2.004 0 0 1-.922 2.675m3.619-3.989a5.007 5.007 0 0 0-6.686-2.306l-8.835 4.3a4.984 4.984 0 0 0-4.67-4.761 1.5 1.5 0 0 0-.312-.033H30.259C29.229 38.347 26.084 34 17.666 34H1.5A1.5 1.5 0 0 0 0 35.5v17.51c0 .657.427 1.237 1.055 1.432l30.5 9.49.007.001.012.002q.203.06.415.063h.005L32 64a1.5 1.5 0 0 0 .525-.106l.051-.017q.04-.011.08-.028L61.19 49.942a5.007 5.007 0 0 0 2.305-6.686M35 15.5c0-1.654-1.346-3-3-3s-3 1.346-3 3 1.346 3 3 3 3-1.346 3-3m3 0c0 3.309-2.691 6-6 6s-6-2.691-6-6 2.69-6 6-6 6 2.691 6 6" clip-rule="evenodd"/></svg>
